assets/images/icons/ico-11.svg

<svg width="40" height="49" viewBox="0 0 40 49" fill="none" xmlns="http://www.w3.org/2000/svg">
<path d="M30.5171 2.50522C33.0046 2.45985 35.4946 2.49841 37.9834 2.48593C37.9834 3.10862 37.9834 3.7313 37.9834 4.35398C35.907 4.35398 33.8318 4.35398 31.7554 4.35398C31.3139 4.32109 30.8724 4.56608 30.699 4.94831C30.0271 6.69159 29.3576 8.43714 28.6614 10.1725C27.9592 10.1532 27.2569 10.1714 26.5547 10.1611C27.1914 8.48478 27.8561 6.81749 28.4977 5.14226C28.7888 4.52865 28.9064 3.84585 29.303 3.27875C29.588 2.88858 30.0428 2.64359 30.5171 2.50522Z" fill="#F7F7F7"/>
<path d="M5.66346 5.2479C7.51669 3.96284 9.91449 3.38552 12.2007 3.68155C13.8041 3.89819 15.3383 4.50953 16.6118 5.44525C16.1364 5.90461 15.6573 6.36056 15.1613 6.7995C12.8508 5.09478 9.33353 5.07096 6.96484 6.68835C5.45242 7.6649 4.40452 9.23352 4.10737 10.928C3.87814 11.9579 4.02005 13.0207 4.32083 14.0233C4.56098 14.714 4.91392 15.3787 5.39178 15.9526C4.90785 16.4017 4.46395 16.8974 3.92545 17.2876C2.1183 15.1133 1.49126 12.1065 2.42758 9.48191C2.97821 7.78967 4.15346 6.30158 5.66346 5.2479Z" fill="#F7F7F7"/>
<path d="M10.6836 7.36293C11.7655 7.28693 12.8376 7.59771 13.7521 8.12738C13.0147 8.84647 12.2324 9.52587 11.5071 10.2574C11.2342 9.29222 10.9735 8.3236 10.6836 7.36293Z" fill="#F7F7F7"/>
<path d="M6.53906 9.95849C6.98175 9.04545 7.80285 8.29346 8.76585 7.86133C9.00478 8.80953 9.34195 9.73505 9.55178 10.6901C8.53298 10.4995 7.55179 10.174 6.53906 9.95849Z" fill="#F7F7F7"/>
<path d="M6.00594 11.752C6.99562 12.0366 8.00956 12.2374 8.99925 12.5209C8.83794 12.7886 8.5699 12.9758 8.34916 13.1958C7.82885 13.671 7.33643 14.1724 6.7955 14.6272C6.46682 14.0283 6.11873 13.4181 6.05203 12.7353C5.97562 12.4132 6.00594 12.0797 6.00594 11.752Z" fill="#F7F7F7"/>
<path d="M12.2435 12.1916C12.4169 11.9818 12.7177 12.0634 12.9615 12.0487C19.5072 12.0532 26.053 12.0487 32.5999 12.0509C32.5951 13.8498 32.6108 15.6487 32.589 17.4487C29.9608 18.1315 27.1736 18.3265 24.486 17.849C23.6709 17.688 22.845 17.5541 22.0603 17.2865C19.0682 16.3258 15.8408 16.0921 12.7104 16.4778C11.9997 16.5787 11.2938 16.7137 10.6001 16.894C10.5952 15.8415 10.6013 14.7901 10.5977 13.7387C11.1434 13.2203 11.6929 12.7054 12.2435 12.1916Z" fill="#F7F7F7"/>
<path d="M11 21.0486C14.1041 20.1863 17.4773 20.2349 20.5548 21.1684C23.8981 22.2258 27.5792 22.3828 31 21.5567C30.9457 22.5057 30.8416 23.4505 30.763 24.3975C30.6323 25.712 30.3721 27.0132 30.2082 28.3246C29.6921 31.8336 29.165 35.3415 28.6578 38.8525C28.4629 40.2414 28.2248 41.6262 28.041 43.0182C27.0642 43.0223 26.0886 43.013 25.113 43.0213C24.5116 42.9975 24.0476 43.6625 24.2868 44.1706C24.4153 44.5238 24.8162 44.7427 25.2071 44.7303C26.0642 44.7365 26.9214 44.7262 27.7785 44.7334C27.6988 45.2962 27.5958 45.858 27.5615 46.4259C23.2182 46.4414 18.8749 46.428 14.5327 46.4321C14.4507 45.8641 14.3455 45.2993 14.2647 44.7313C15.1495 44.7272 16.0354 44.7386 16.9214 44.7272C17.3555 44.7262 17.7176 44.4133 17.8328 44.0374C17.9081 43.5655 17.5415 43.0522 17.0122 43.0254C16.0144 43.0078 15.0155 43.0275 14.0177 43.0161C13.9092 42.064 13.691 41.1253 13.608 40.1701C13.1739 37.3407 12.7586 34.5081 12.3499 31.6745C12.2392 30.9982 12.1174 30.3228 12.0543 29.6423C11.6899 27.2817 11.3123 24.919 11.1096 22.5397C11.0509 22.043 11.124 21.537 11 21.0486ZM17.0786 22.5924C16.4131 22.7803 16.2636 23.6891 16.8151 24.0712C17.3444 24.5131 18.2724 24.1032 18.2879 23.4578C18.3688 22.8815 17.6556 22.3704 17.0786 22.5924ZM23.454 23.2502C23.32 23.2894 23.2027 23.3648 23.1052 23.4578C21.9081 24.5782 20.7121 25.6986 19.5105 26.8149C19.2503 27.0472 18.9524 27.323 18.9779 27.6885C18.9756 27.9694 19.1761 28.1966 19.3765 28.3856C20.6124 29.5349 21.8427 30.6904 23.0764 31.8429C23.4153 32.2198 24.1229 32.2229 24.4585 31.8387C25.732 30.6491 27.0089 29.4626 28.2757 28.2668C28.6401 27.9611 28.6567 27.3994 28.3012 27.0824C27.0432 25.8824 25.7586 24.7062 24.4928 23.5125C24.2458 23.2388 23.8162 23.1232 23.454 23.2502ZM14.6523 30.9114C14.7763 31.1097 14.9203 31.311 15.1539 31.4091C15.6268 31.6694 16.2901 31.372 16.4219 30.8877C16.619 30.3507 16.0875 29.7146 15.474 29.7972C14.897 29.8292 14.5249 30.4054 14.6523 30.9114ZM16.1417 33.6861C15.7829 33.8059 15.5515 34.1467 15.5592 34.4988C15.5559 36.1924 15.557 37.8869 15.5592 39.5805C15.5271 40.0503 15.9723 40.483 16.4784 40.4624C18.2846 40.4655 20.0919 40.4644 21.8992 40.4624C22.412 40.4975 22.8926 40.0452 22.856 39.5681C22.8582 37.8787 22.8605 36.1903 22.8549 34.5019C22.8782 34.0321 22.402 33.5963 21.8959 33.6376C20.1617 33.6345 18.4264 33.6397 16.6921 33.6345C16.5083 33.6407 16.3167 33.6242 16.1417 33.6861ZM25.5914 35.3342C25.5626 35.8661 26.1406 36.2739 26.6844 36.1944C26.9391 36.1077 27.1849 35.9673 27.309 35.7318C27.6113 35.2795 27.268 34.6135 26.7132 34.5226C26.1739 34.3832 25.5637 34.8024 25.5914 35.3342ZM20.6966 43.0677C20.0122 43.2991 19.9214 44.3038 20.5836 44.6095C21.1307 44.9461 21.9502 44.5093 21.9391 43.9052C21.9956 43.3187 21.278 42.8416 20.6966 43.0677Z" fill="#48FDBC"/>
<path d="M22.5607 25.3467C23.2387 24.7093 23.9203 24.0741 24.5971 23.4355C25.5128 24.3475 26.5097 25.189 27.406 26.118C26.4661 26.9958 25.5261 27.8726 24.5934 28.7561C23.668 27.8714 22.7256 27.0015 21.793 26.1248C21.9967 25.8231 22.3012 25.6042 22.5607 25.3467Z" fill="#F7F7F7"/>
<path d="M17.5859 34.5239C18.9189 34.5228 20.2506 34.5239 21.5835 34.5239C21.5835 35.7727 21.5835 37.0226 21.5835 38.2714C20.2506 38.2725 18.9189 38.2725 17.5859 38.2714C17.5859 37.0226 17.5872 35.7738 17.5859 34.5239Z" fill="#F7F7F7"/>
<path d="M27.4709 2.49155C28.1561 1.3528 29.5109 0.615566 30.9081 0.611029C33.4939 0.606492 36.0785 0.613297 38.663 0.607626C39.3265 0.491937 40.0493 0.953561 39.9972 1.61934C39.9984 2.83635 40.002 4.05336 39.9948 5.27037C40.002 5.67528 39.6976 6.05638 39.2986 6.19816C39.0136 6.25373 38.72 6.22991 38.4314 6.23445C36.395 6.23445 34.3586 6.22991 32.3223 6.23672C31.842 7.5524 31.2986 8.84767 30.8135 10.1611C31.7377 10.1668 32.6619 10.1554 33.5861 10.1656C34.0603 10.1486 34.4557 10.5048 34.5854 10.9108C34.5818 13.3789 34.6 15.8469 34.5733 18.3149C34.4666 19.2121 34.5321 20.1195 34.4072 21.0155C34.3295 22.3448 34.1088 23.6639 33.9305 24.983C33.1858 30.1731 32.3975 35.3565 31.6528 40.5466C31.2962 42.8411 30.9894 45.1447 30.6243 47.4381C30.6049 47.7988 30.5163 48.215 30.1561 48.4147C29.8105 48.6494 29.3666 48.5757 28.9687 48.5882C24.0349 48.5871 19.1022 48.5859 14.1696 48.5882C13.813 48.578 13.4249 48.6347 13.1023 48.4566C12.7991 48.3069 12.6329 47.995 12.5953 47.6854C12.4595 46.8857 12.343 46.0816 12.2557 45.2752C12.0908 44.1829 11.8858 43.0941 11.7633 41.995C11.1726 38.1137 10.6268 34.2223 10.0362 30.341C9.8955 29.0389 9.61776 27.7538 9.47464 26.4518C9.17507 24.459 8.85366 22.4673 8.75178 20.4552C8.61594 18.8412 8.5929 17.2227 8.58684 15.6053C7.29515 16.845 5.97558 18.0597 4.67055 19.2881C4.31519 19.6726 3.62993 19.7304 3.25152 19.3448C0.648748 16.9856 -0.528927 13.3437 0.224251 10.0307C0.893743 6.59967 3.61416 3.59854 7.11565 2.40649C10.8731 1.0443 15.4103 1.82804 18.3685 4.39816C18.668 4.67264 19.0707 4.94712 19.0719 5.38152C19.1095 5.75241 18.816 6.04163 18.554 6.28095C17.158 7.56828 15.7984 8.89077 14.3867 10.1611C17.7281 10.1656 21.0695 10.16 24.4109 10.1645C25.2307 8.13199 26.0021 6.08247 26.8002 4.04202C27.0367 3.53049 27.1507 2.96905 27.4709 2.49155ZM30.52 2.50403C30.0458 2.6424 29.5909 2.88739 29.3059 3.27756C28.9093 3.84467 28.7917 4.52746 28.5006 5.14107C27.859 6.8163 27.1944 8.48359 26.5576 10.16C27.2598 10.1702 27.9621 10.152 28.6643 10.1713C29.3605 8.43596 30.03 6.6904 30.7019 4.94712C30.8753 4.56489 31.3168 4.3199 31.7583 4.35279C33.8347 4.35279 35.9099 4.35279 37.9863 4.35279C37.9863 3.73011 37.9863 3.10743 37.9863 2.48475C35.4975 2.49722 33.0075 2.45866 30.52 2.50403ZM5.66509 5.24655C4.15509 6.30023 2.97984 7.78832 2.42921 9.48057C1.49289 12.1051 2.11993 15.1119 3.92708 17.2862C4.46558 16.896 4.90948 16.4004 5.39341 15.9512C4.91555 15.3773 4.56261 14.7127 4.32246 14.0219C4.02168 13.0193 3.87977 11.9565 4.109 10.9267C4.40615 9.23217 5.45405 7.66356 6.96647 6.687C9.33516 5.06961 12.8524 5.09343 15.1629 6.79815C15.659 6.35921 16.138 5.90326 16.6135 5.4439C15.34 4.50818 13.8057 3.89684 12.2023 3.68021C9.91612 3.38418 7.51832 3.96149 5.66509 5.24655ZM10.6863 7.36186C10.9761 8.32253 11.2369 9.29115 11.5098 10.2564C12.2351 9.5248 13.0174 8.84541 13.7548 8.12632C12.8403 7.59664 11.7681 7.28586 10.6863 7.36186ZM6.53955 9.95807C7.55228 10.1736 8.53347 10.4991 9.55226 10.6896C9.34244 9.73463 9.00527 8.80911 8.76634 7.86091C7.80334 8.29304 6.98224 9.04503 6.53955 9.95807ZM6.00832 11.7501C6.00832 12.0779 5.978 12.4114 6.05441 12.7335C6.12112 13.4163 6.46921 14.0265 6.79789 14.6253C7.33882 14.1705 7.83123 13.6692 8.35155 13.194C8.57228 12.9739 8.84032 12.7868 9.00163 12.5191C8.01195 12.2356 6.99801 12.0348 6.00832 11.7501ZM12.2448 12.1902C11.6942 12.704 11.1447 13.2189 10.599 13.7373C10.6026 14.7887 10.5965 15.8401 10.6014 16.8926C11.2951 16.7123 12.001 16.5773 12.7117 16.4764C15.8421 16.0907 19.0695 16.3244 22.0616 17.2851C22.8463 17.5527 23.6722 17.6866 24.4873 17.8476C27.1749 18.3251 29.9621 18.1301 32.5903 17.4473C32.6121 15.6473 32.5964 13.8484 32.6012 12.0496C26.0543 12.0473 19.5085 12.0518 12.9628 12.0473C12.719 12.062 12.4182 11.9804 12.2448 12.1902ZM10.6123 18.8321C10.7481 19.3686 10.6681 19.9244 10.7324 20.4699C10.9543 23.0832 11.3679 25.6782 11.7669 28.271C11.8361 29.0185 11.9695 29.7603 12.0908 30.5032C12.5383 33.6155 12.9931 36.7266 13.4685 39.8343C13.5595 40.8835 13.7984 41.9145 13.9173 42.9602C15.0101 42.9727 16.1041 42.9512 17.1968 42.9704C17.7766 42.9999 18.178 43.5636 18.0956 44.082C17.9694 44.4948 17.5728 44.8385 17.0974 44.8396C16.1271 44.8521 15.1568 44.8396 14.1878 44.8442C14.2763 45.468 14.3915 46.0884 14.4813 46.7122C19.2369 46.7077 23.9936 46.7224 28.7504 46.7054C28.788 46.0816 28.9008 45.4646 28.9882 44.8464C28.0494 44.8385 27.1107 44.8498 26.1719 44.843C25.7438 44.8566 25.3047 44.6162 25.164 44.2283C24.9021 43.6702 25.4103 42.9398 26.0688 42.9659C27.1373 42.9568 28.2059 42.967 29.2756 42.9625C29.4769 41.4336 29.7377 39.9126 29.9512 38.3871C30.5066 34.5308 31.084 30.6778 31.6491 26.8238C31.8286 25.3833 32.1137 23.9542 32.2568 22.5104C32.3429 21.4703 32.4569 20.4325 32.5163 19.3902C28.7698 20.2975 24.7383 20.1251 21.0767 18.9637C17.7062 17.9384 14.0119 17.8851 10.6123 18.8321Z" fill="black"/>
<path d="M17.2717 20.527C17.9036 20.2831 18.6847 20.8446 18.5962 21.4775C18.5792 22.1863 17.5628 22.6366 16.9831 22.1512C16.3791 21.7315 16.5428 20.7334 17.2717 20.527Z" fill="black"/>
<path d="M24.2517 21.2499C24.6483 21.1104 25.1188 21.2374 25.3893 21.538C26.7756 22.8492 28.1825 24.141 29.5603 25.459C29.9496 25.8072 29.9314 26.4242 29.5324 26.7599C28.1449 28.0733 26.7465 29.3765 25.3517 30.6832C24.9842 31.1051 24.2092 31.1017 23.8381 30.6877C22.487 29.4219 21.1395 28.1527 19.786 26.8903C19.5664 26.6828 19.3469 26.4333 19.3493 26.1248C19.3214 25.7232 19.6477 25.4204 19.9327 25.1652C21.2486 23.9391 22.5585 22.7085 23.8696 21.4779C23.9763 21.3758 24.1049 21.293 24.2517 21.2499ZM22.5634 25.3456C22.3038 25.603 21.9994 25.8219 21.7956 26.1236C22.7283 27.0004 23.6707 27.8703 24.5961 28.755C25.5288 27.8714 26.4687 26.9947 27.4087 26.1168C26.5124 25.1879 25.5154 24.3463 24.5997 23.4344C23.923 24.073 23.2414 24.7081 22.5634 25.3456Z" fill="black"/>
<path d="M14.6133 29.6654C14.4738 29.1096 14.8814 28.4768 15.5133 28.4416C16.1852 28.3509 16.7673 29.0495 16.5515 29.6393C16.4071 30.1713 15.6806 30.4979 15.1627 30.2121C14.9068 30.1043 14.7492 29.8832 14.6133 29.6654Z" fill="black"/>
<path d="M16.2457 32.713C16.4374 32.6449 16.6472 32.6631 16.8485 32.6562C18.7478 32.6619 20.6484 32.6562 22.5477 32.6597C23.102 32.6143 23.6235 33.0929 23.598 33.609C23.6041 35.4634 23.6016 37.3179 23.5992 39.1734C23.6392 39.6974 23.1129 40.1942 22.5513 40.1557C20.572 40.1579 18.5926 40.1591 16.6144 40.1557C16.0602 40.1783 15.5726 39.7031 15.6078 39.187C15.6053 37.3269 15.6041 35.4657 15.6078 33.6056C15.5993 33.2188 15.8528 32.8445 16.2457 32.713ZM17.592 34.5232C17.5932 35.7731 17.592 37.0218 17.592 38.2706C18.9249 38.2717 20.2566 38.2717 21.5895 38.2706C21.5895 37.0218 21.5895 35.7719 21.5895 34.5232C20.2566 34.5232 18.9249 34.522 17.592 34.5232Z" fill="black"/>
<path d="M26.591 34.5227C26.5607 33.9386 27.2289 33.4781 27.8196 33.6313C28.4272 33.7311 28.8032 34.4626 28.4721 34.9594C28.3363 35.218 28.067 35.3723 27.7881 35.4675C27.1925 35.5549 26.5594 35.1069 26.591 34.5227Z" fill="black"/>
<path d="M21.2314 43.0161C21.8681 42.7677 22.654 43.2917 22.5922 43.9359C22.6043 44.5994 21.7068 45.0792 21.1076 44.7094C20.3824 44.3737 20.4818 43.2701 21.2314 43.0161Z" fill="black"/>
</svg>

<svg xmlns="http://www.w3.org/2000/svg" width="40" height="49" fill="none"><path fill="#F7F7F7" d="M30.517 2.505c2.488-.045 4.978-.007 7.466-.02v1.869h-6.228c-.441-.033-.883.212-1.056.594-.672 1.744-1.341 3.49-2.038 5.224-.702-.019-1.404 0-2.106-.01.636-1.677 1.301-3.345 1.943-5.02.29-.613.408-1.296.805-1.863.285-.39.74-.635 1.214-.774M5.663 5.248c1.854-1.285 4.251-1.862 6.538-1.566a9.67 9.67 0 0 1 4.41 1.763c-.475.46-.954.916-1.45 1.354-2.31-1.704-5.827-1.728-8.196-.11-1.513.976-2.56 2.545-2.858 4.239-.229 1.03-.087 2.093.214 3.095.24.691.593 1.356 1.07 1.93-.483.449-.927.944-1.466 1.335-1.807-2.175-2.434-5.181-1.497-7.806.55-1.692 1.725-3.18 3.235-4.234"/><path fill="#F7F7F7" d="M10.684 7.363c1.082-.076 2.154.235 3.068.764-.737.72-1.52 1.399-2.245 2.13-.273-.965-.534-1.933-.823-2.894M6.54 9.958c.442-.913 1.263-1.665 2.226-2.097.239.949.576 1.874.786 2.83-1.019-.192-2-.517-3.013-.733M6.006 11.752c.99.285 2.004.485 2.993.769-.161.268-.43.455-.65.675-.52.475-1.013.976-1.554 1.431-.328-.599-.676-1.209-.743-1.892-.076-.322-.046-.655-.046-.983M12.244 12.192c.173-.21.474-.129.717-.143 6.546.004 13.092 0 19.639.002-.005 1.799.01 3.598-.011 5.398-2.628.682-5.415.877-8.103.4-.815-.161-1.641-.295-2.426-.562-2.992-.961-6.22-1.195-9.35-.81-.71.102-1.416.237-2.11.417-.005-1.052.001-2.104-.002-3.155q.819-.778 1.645-1.547"/><path fill="#48FDBC" d="M11 21.049a17.3 17.3 0 0 1 9.555.12c3.343 1.057 7.024 1.214 10.445.388-.054.949-.158 1.894-.237 2.84-.13 1.315-.39 2.616-.555 3.928-.516 3.509-1.043 7.017-1.55 10.528-.195 1.388-.433 2.773-.617 4.165-.977.004-1.952-.005-2.928.003-.601-.023-1.065.642-.826 1.15.128.353.53.572.92.56.857.005 1.714-.005 2.572.002-.08.563-.183 1.125-.218 1.693-4.343.015-8.686.002-13.028.006-.082-.568-.187-1.133-.268-1.7.884-.005 1.77.007 2.656-.005.434 0 .797-.314.912-.69.075-.471-.291-.985-.82-1.012-.999-.017-1.998.003-2.995-.009-.109-.952-.327-1.89-.41-2.846-.434-2.83-.85-5.662-1.258-8.496-.11-.676-.233-1.351-.296-2.032-.364-2.36-.742-4.723-.944-7.102-.06-.497.014-1.003-.11-1.491m6.079 1.543c-.666.188-.815 1.097-.264 1.48.53.441 1.457.031 1.473-.614.08-.576-.632-1.088-1.21-.866m6.375.658a.86.86 0 0 0-.349.208q-1.794 1.68-3.594 3.357c-.26.232-.559.508-.533.874-.002.28.198.508.398.697q1.852 1.726 3.7 3.457c.34.377 1.047.38 1.383-.004 1.273-1.19 2.55-2.376 3.817-3.572a.785.785 0 0 0 .025-1.185c-1.258-1.2-2.542-2.376-3.808-3.57a1 1 0 0 0-1.039-.262m-8.802 7.661c.124.199.268.4.502.498.473.26 1.136-.037 1.268-.521.197-.537-.335-1.173-.948-1.09-.577.031-.95.607-.822 1.113m1.49 2.775a.85.85 0 0 0-.583.813q-.004 2.54 0 5.081c-.032.47.413.903.92.882q2.71.004 5.42 0c.513.035.994-.417.957-.894q.005-2.534-.001-5.066c.023-.47-.453-.906-.96-.864-1.733-.003-3.469.002-5.203-.003-.184.006-.375-.01-.55.051m9.45 1.648c-.03.532.549.94 1.092.86.255-.086.5-.227.625-.462.302-.453-.041-1.118-.596-1.21-.54-.139-1.15.28-1.122.812m-4.895 7.734c-.685.231-.776 1.236-.113 1.541.547.337 1.366-.1 1.355-.704.057-.586-.661-1.063-1.242-.837"/><path fill="#F7F7F7" d="M22.56 25.347q1.02-.955 2.037-1.912c.916.913 1.913 1.754 2.809 2.683q-1.412 1.315-2.813 2.638c-.925-.885-1.867-1.755-2.8-2.631.204-.302.508-.52.768-.778M17.586 34.524h3.998v3.747q-1.999.003-3.998 0z"/><path fill="#000" d="M27.47 2.492c.686-1.14 2.04-1.876 3.438-1.881 2.586-.005 5.17.002 7.755-.003.664-.116 1.386.346 1.334 1.011.001 1.217.005 2.434-.002 3.651.007.405-.297.786-.696.928-.285.056-.579.032-.868.036-2.036 0-4.072-.004-6.109.003-.48 1.315-1.023 2.61-1.509 3.924.925.006 1.849-.006 2.773.005.474-.017.87.339 1 .745-.004 2.468.014 4.936-.013 7.404-.106.897-.04 1.804-.166 2.7-.077 1.33-.298 2.649-.476 3.968-.745 5.19-1.533 10.373-2.278 15.564-.357 2.294-.664 4.598-1.029 6.891-.02.36-.108.777-.468.977-.345.234-.79.16-1.187.173q-7.4-.002-14.8 0c-.356-.01-.744.047-1.067-.131-.303-.15-.47-.462-.507-.772-.136-.8-.252-1.603-.34-2.41-.164-1.092-.37-2.18-.492-3.28-.59-3.881-1.136-7.773-1.727-11.654-.14-1.302-.418-2.587-.561-3.89-.3-1.992-.621-3.984-.723-5.996-.136-1.614-.16-3.232-.165-4.85-1.292 1.24-2.611 2.455-3.916 3.683-.356.385-1.041.442-1.42.057C.65 16.985-.528 13.344.225 10.03c.67-3.431 3.39-6.432 6.892-7.625 3.757-1.362 8.294-.578 11.253 1.992.299.275.702.55.703.984.038.37-.256.66-.518.899-1.396 1.287-2.756 2.61-4.167 3.88 3.341.005 6.683-.001 10.024.004.82-2.033 1.591-4.083 2.39-6.123.236-.512.35-1.073.67-1.55m3.05.012c-.474.138-.93.383-1.214.774-.397.567-.514 1.25-.805 1.863-.642 1.675-1.307 3.343-1.943 5.019.702.01 1.404-.008 2.106.011.696-1.735 1.366-3.48 2.038-5.224.173-.382.615-.627 1.056-.594h6.228V2.485c-2.488.012-4.978-.026-7.466.019M5.665 5.247C4.155 6.3 2.98 7.788 2.43 9.48c-.936 2.624-.31 5.63 1.498 7.805.539-.39.982-.886 1.466-1.335a6.2 6.2 0 0 1-1.07-1.93c-.301-1.002-.443-2.065-.214-3.094.297-1.695 1.345-3.263 2.857-4.24 2.37-1.617 5.886-1.594 8.197.111.496-.439.975-.895 1.45-1.354a9.7 9.7 0 0 0-4.41-1.764c-2.287-.296-4.685.281-6.538 1.567m5.021 2.115c.29.96.55 1.93.824 2.894.725-.731 1.507-1.41 2.245-2.13-.915-.53-1.987-.84-3.069-.764M6.54 9.958c1.012.216 1.993.541 3.012.732-.21-.955-.547-1.88-.786-2.83-.963.433-1.784 1.185-2.226 2.098m-.532 1.792c0 .328-.03.661.046.983.067.683.415 1.293.744 1.892.54-.454 1.033-.956 1.554-1.431.22-.22.488-.407.65-.675-.99-.283-2.004-.484-2.994-.769m6.237.44q-.826.77-1.646 1.547c.004 1.052-.002 2.103.002 3.156.694-.18 1.4-.316 2.11-.417 3.131-.385 6.359-.152 9.35.81.785.267 1.611.4 2.426.562 2.688.477 5.475.282 8.103-.4.022-1.8.006-3.6.011-5.398-6.547-.003-13.092.002-19.638-.003-.244.015-.545-.067-.718.143m-1.633 6.642c.136.537.056 1.092.12 1.638.222 2.613.636 5.208 1.035 7.801.07.747.203 1.49.324 2.232.447 3.112.902 6.224 1.378 9.331.09 1.05.33 2.08.448 3.126 1.093.013 2.187-.009 3.28.01.58.03.981.594.899 1.112-.127.413-.523.757-.999.758-.97.012-1.94 0-2.91.004.09.624.205 1.244.294 1.868 4.756-.004 9.513.01 14.27-.007.037-.623.15-1.24.237-1.859-.939-.007-1.877.004-2.816-.003-.428.014-.867-.227-1.008-.615-.262-.558.246-1.288.905-1.262 1.068-.01 2.137.001 3.207-.004.2-1.528.462-3.05.675-4.575.556-3.856 1.133-7.71 1.698-11.563.18-1.44.465-2.87.608-4.314.086-1.04.2-2.078.26-3.12-3.747.907-7.779.735-11.44-.426a18.9 18.9 0 0 0-10.465-.132"/><path fill="#000" d="M17.272 20.527c.632-.244 1.413.318 1.324.95-.017.71-1.033 1.16-1.613.674-.604-.42-.44-1.418.289-1.624M24.252 21.25c.396-.14.867-.013 1.137.288 1.387 1.311 2.794 2.603 4.171 3.921a.864.864 0 0 1-.028 1.3c-1.387 1.314-2.785 2.617-4.18 3.924-.368.422-1.143.419-1.514.005-1.351-1.266-2.698-2.535-4.052-3.798-.22-.207-.44-.457-.437-.765-.028-.402.299-.705.584-.96 1.316-1.226 2.625-2.456 3.937-3.687a.94.94 0 0 1 .382-.228m-1.689 4.096c-.26.257-.564.476-.767.778.932.876 1.875 1.746 2.8 2.631.933-.884 1.873-1.76 2.813-2.638-.897-.93-1.894-1.77-2.81-2.683-.676.639-1.358 1.274-2.036 1.912M14.613 29.665c-.14-.555.268-1.188.9-1.223.672-.091 1.254.607 1.039 1.197-.145.532-.871.859-1.39.573-.255-.108-.413-.329-.549-.547M16.246 32.713c.191-.068.401-.05.603-.057 1.899.006 3.8 0 5.699.004.554-.046 1.076.433 1.05.949q.007 2.781.001 5.564c.04.524-.486 1.021-1.048.983q-2.968.004-5.937 0c-.554.022-1.041-.453-1.006-.969q-.005-2.79 0-5.581a.93.93 0 0 1 .638-.893m1.346 1.81v3.748h3.998v-3.748zM26.591 34.523c-.03-.584.638-1.045 1.229-.892.607.1.983.832.652 1.328-.136.259-.405.413-.684.508-.596.088-1.229-.36-1.197-.944M21.231 43.016c.637-.248 1.423.276 1.361.92.012.663-.885 1.143-1.484.773-.726-.335-.626-1.439.123-1.693"/></svg>
